src/objects/tool/1FA9C.svg

<?xml version="1.0" encoding="UTF-8"?>
<svg id="emoji" xmlns="http://www.w3.org/2000/svg" viewBox="0 0 72 72">
  <g id="grid">
    <path d="m68,4v64H4V4h64m4-4H0v72h72V0Z" fill="#b3b3b3"/>
    <rect x="11" y="10.9583" width="50" height="50" rx="1.9231" ry="1.9231" fill="none" stroke="#00a5ff" stroke-miterlimit="10" stroke-width=".1"/>
    <rect x="16" y="4" width="40" height="64" rx="2.2537" ry="2.2537" fill="none" stroke="#00a5ff" stroke-miterlimit="10" stroke-width=".1"/>
    <rect x="4" y="16" width="64" height="40" rx="2.2537" ry="2.2537" fill="none" stroke="#00a5ff" stroke-miterlimit="10" stroke-width=".1"/>
    <circle cx="36" cy="36" r="29" fill="none" stroke="#00a5ff" stroke-miterlimit="10" stroke-width=".1"/>
  </g>
  <g id="color">
    <polygon points="37.7593 20.2288 43.852 20.2288 42.2034 24.6012 36.9709 24.6012 37.7593 20.2288" fill="#fff"/>
    <polygon points="34.5338 32.1991 40.1964 32.0558 38.3328 36.4999 33.3153 36.1415 34.5338 32.1991" fill="#fff"/>
    <polygon points="30.9499 44.4562 35.7523 44.3845 34.3188 47.61 30.1614 47.5383 30.9499 44.4562" fill="#fff"/>
    <path d="m22.2648,62.0342h-2.0576c-.5942-.0001-1.0758-.4819-1.0757-1.0761,0-.1124.0177-.2241.0523-.3311L35.3478,10.687c.1433-.4441.5568-.7451,1.0235-.7451h2.0587c.5942,0,1.0758.4818,1.0758,1.076,0,.1124-.0177.2242-.0523.3312l-16.1653,49.94c-.1433.4441-.5567.7452-1.0234.7451Z" fill="#6a462f"/>
    <path d="m36.09,62.0342h-2.0576c-.5942-.0001-1.0758-.4819-1.0757-1.0761,0-.1124.0177-.2241.0523-.3311L49.1731,10.687c.1433-.4441.5567-.7452,1.0234-.7451h2.0586c.5942.0001,1.0758.4819,1.0757,1.0761,0,.1124-.0177.2241-.0523.3311l-16.165,49.94c-.1433.4442-.5568.7452-1.0235.7451Z" fill="#a57939"/>
    <path d="m47.9377,18.6777h-13.8177c-.5523,0-1-.4478-.9999-1.0001,0-.1214.0221-.2418.0653-.3553l.6387-1.6778c.1476-.3881.5197-.6446.9349-.6445h13.8173c.5523,0,1,.4478.9999,1.0001,0,.1215-.0221.2419-.0653.3554l-.6387,1.6777c-.1476.388-.5194.6444-.9345.6445Z" fill="#a57939"/>
    <path d="m44.1359,30.3166h-13.8174c-.5523,0-.9999-.4479-.9998-1.0002,0-.1214.0222-.2418.0653-.3553l.6386-1.6777c.1475-.388.5195-.6446.9346-.6446h13.8174c.5523,0,1,.4478.9999,1.0001,0,.1215-.0221.2419-.0653.3554l-.6387,1.6777c-.1475.388-.5195.6446-.9346.6446Z" fill="#a57939"/>
    <path d="m40.4338,42h-13.8174c-.5523,0-1-.4478-.9999-1.0001,0-.1215.0221-.2419.0653-.3554l.6387-1.6777c.1475-.388.5195-.6446.9346-.6446h13.8174c.5523,0,.9999.4479.9998,1.0002,0,.1214-.0222.2418-.0653.3553l-.6386,1.6778c-.1477.3879-.5195.6443-.9346.6445Z" fill="#a57939"/>
    <path d="m36.6485,53.6528h-13.8174c-.5523,0-.9999-.4479-.9998-1.0002,0-.1214.0222-.2418.0653-.3553l.6386-1.6777c.1475-.388.5195-.6446.9346-.6446h13.8174c.5523,0,1,.4478.9999,1.0001,0,.1215-.0221.2419-.0653.3554l-.6387,1.6777c-.1475.388-.5195.6446-.9346.6446Z" fill="#a57939"/>
  </g>
  <g id="line">
    <line x1="20.2069" y1="60.9583" x2="36.3713" y2="11.0176" fill="none" stroke="#000" stroke-linecap="round" stroke-linejoin="round" stroke-width="2"/>
    <line x1="34.0242" y1="60.9583" x2="50.1886" y2="11.0176" fill="none" stroke="#000" stroke-linecap="round" stroke-linejoin="round" stroke-width="2"/>
    <line x1="34.7586" y1="16" x2="48.5759" y2="16" fill="none" stroke="#000" stroke-linecap="round" stroke-linejoin="round" stroke-width="2"/>
    <line x1="30.9853" y1="27.658" x2="44.8026" y2="27.658" fill="none" stroke="#000" stroke-linecap="round" stroke-linejoin="round" stroke-width="2"/>
    <line x1="37.2559" y1="50.9739" x2="23.4385" y2="50.9739" fill="none" stroke="#000" stroke-linecap="round" stroke-linejoin="round" stroke-width="2"/>
    <line x1="27.2119" y1="39.316" x2="41.0292" y2="39.316" fill="none" stroke="#000" stroke-linecap="round" stroke-linejoin="round" stroke-width="2"/>
  </g>
</svg>

<svg id="emoji" viewBox="0 0 72 72" xmlns="http://www.w3.org/2000/svg">
  <g id="grid">
    <path fill="#b3b3b3" d="M68,4V68H4V4H68m4-4H0V72H72V0Z"/>
    <rect x="11" y="10.9583" rx="1.9231" width="50" height="50" fill="none" stroke="#00a5ff" stroke-miterlimit="10" stroke-width="0.1"/>
    <rect x="16" y="4" rx="2.2537" width="40" height="64" fill="none" stroke="#00a5ff" stroke-miterlimit="10" stroke-width="0.1"/>
    <rect x="16" y="4" rx="2.2537" width="40" height="64" transform="rotate(90 36 36)" fill="none" stroke="#00a5ff" stroke-miterlimit="10" stroke-width="0.1"/>
    <circle cx="36" cy="36" r="29" fill="none" stroke="#00a5ff" stroke-miterlimit="10" stroke-width="0.1"/>
  </g>
  <g id="color">
    <path fill="#6a462f" d="M22.2648,62.0342H20.2072a1.0759,1.0759,0,0,1-1.0234-1.4072l16.164-49.94a1.0754,1.0754,0,0,1,1.0235-.7451H38.43a1.0759,1.0759,0,0,1,1.0235,1.4072L23.2882,61.2891A1.0752,1.0752,0,0,1,22.2648,62.0342Z"/>
    <path fill="#a57939" d="M36.09,62.0342H34.0324A1.0759,1.0759,0,0,1,33.009,60.627l16.1641-49.94a1.0752,1.0752,0,0,1,1.0234-.7451h2.0586a1.0759,1.0759,0,0,1,1.0234,1.4072L37.1135,61.2891A1.0753,1.0753,0,0,1,36.09,62.0342Z"/>
    <path fill="#a57939" d="M47.9377,18.6777H34.12a1,1,0,0,1-.9346-1.3554l.6387-1.6778A1,1,0,0,1,34.759,15H48.5763a1,1,0,0,1,.9346,1.3555l-.6387,1.6777A1,1,0,0,1,47.9377,18.6777Z"/>
    <path fill="#a57939" d="M44.1359,30.3166H30.3185a1,1,0,0,1-.9345-1.3555l.6386-1.6777a1,1,0,0,1,.9346-.6446H44.7746a1,1,0,0,1,.9346,1.3555l-.6387,1.6777A1,1,0,0,1,44.1359,30.3166Z"/>
    <path fill="#a57939" d="M40.4338,42H26.6164a1,1,0,0,1-.9346-1.3555l.6387-1.6777a1,1,0,0,1,.9346-.6446H41.0725a1,1,0,0,1,.9345,1.3555l-.6386,1.6778A1.0005,1.0005,0,0,1,40.4338,42Z"/>
    <path fill="#a57939" d="M36.6485,53.6528H22.8311a1,1,0,0,1-.9345-1.3555l.6386-1.6777a1,1,0,0,1,.9346-.6446H37.2872a1,1,0,0,1,.9346,1.3555l-.6387,1.6777A1,1,0,0,1,36.6485,53.6528Z"/>
  </g>
  <g id="line">
    <line x1="20.2069" x2="36.3713" y1="60.9583" y2="11.0176" fill="none" stroke="#000" stroke-linecap="round" stroke-linejoin="round" stroke-width="2"/>
    <line x1="34.0242" x2="50.1886" y1="60.9583" y2="11.0176" fill="none" stroke="#000" stroke-linecap="round" stroke-linejoin="round" stroke-width="2"/>
    <line x1="34.7586" x2="48.5759" y1="16" y2="16" fill="none" stroke="#000" stroke-linecap="round" stroke-linejoin="round" stroke-width="2"/>
    <line x1="30.9853" x2="44.8026" y1="27.658" y2="27.658" fill="none" stroke="#000" stroke-linecap="round" stroke-linejoin="round" stroke-width="2"/>
    <line x1="37.2559" x2="23.4385" y1="50.9739" y2="50.9739" fill="none" stroke="#000" stroke-linecap="round" stroke-linejoin="round" stroke-width="2"/>
    <line x1="27.2119" x2="41.0292" y1="39.316" y2="39.316" fill="none" stroke="#000" stroke-linecap="round" stroke-linejoin="round" stroke-width="2"/>
  </g>
</svg>
